X:1
T:Title
%%score ( 1 2 ) 3
L:1/8
Q:1/4=100
M:2/4
K:Eb
V:1 treble nm="Grand Piano, Piano"
V:2 treble 
V:3 bass nm="Grand Piano, Piano"
V:1
 [EG][EG] [EG][FA] | [GB][GB] [GB][EG] | [FA]2 [=EG]2 | [FA]4 | [DF][EG] [FA][GB] | %5
w: 1.~When~ up on~ life's~|bil lows~ you~ are~|temp est~|tossed,~|When~ you~ are~ dis|
 [Bd][Ac] [GB][FA] | [EG]2 [FA]2 | [GB]4 | [EG][EG] [EG][FA] | [GB][GB] [GB][EG] | [FA]2 [=EG]2 | %11
w: cour aged,~ thin king~|all~ is~|lost,~|Count~ your~ ma ny~|bles sings,~ name~ them~|one~ by~|
 [FA]4 | [DF][EG] [FA][GB] | [Bd][Ac] [GB][FA] | [EG]2 [DF]2 | E4 | [GB]3 [GB] | %17
w: one,~|And~ it~ will~ sur|prise~ you~ what~ the~|Lord~ hath~|done.~||
 [Ge][GB] [GB][EG] | A2 A2 | [B,A]4 | [FA]3 [FA] | [Bd][Ac] [GB][FA] | [EG]2 [FA]2 | [GB]4 | %24
w: |||||||
 [Ge]3 [Ge] | [Bd] [Ac]3 | [Ad][Ad] [Ac][Ac] | [AB]4 | [Ge][Ge] [Gd][Ge] | [Bd][Ac] [FB][FA] | %30
w: ||||||
 [EG]2 [DF]2 | E4 |] %32
w: ||
V:2
 x4 | x4 | x4 | x4 | x4 | x4 | x4 | x4 | x4 | x4 | x4 | x4 | x4 | x4 | x4 | x4 | x4 | x4 | FE DC | %19
 x4 | x4 | x4 | x4 | x4 | x4 | x4 | x4 | x4 | x4 | x4 | x4 | x4 |] %32
V:3
 [E,B,][E,B,] [E,B,][E,B,] | [E,E][E,B,] [E,B,][E,B,] | [B,,B,]2 [B,,B,]2 | [B,,B,]4 | %4
 [B,,B,][B,,B,] [B,,B,][B,,B,] | [B,,B,][B,,B,] [B,,B,][B,,B,] | [E,B,]2 [E,E]2 | [E,E]4 | %8
 [E,B,][E,B,] [E,B,][E,B,] | [E,E][E,B,] [E,B,][E,B,] | [B,,B,]2 [B,,B,]2 | [B,,B,]4 | %12
 [B,,B,][B,,B,] [B,,B,][B,,B,] | [B,,B,][B,,B,] [B,,B,][B,,B,] | [B,,B,]2 [B,,A,]2 | [E,G,]4 | %16
 [E,E][E,E] [E,E][E,E] | [E,B,] [E,B,]3 | [B,,B,][B,,B,] [B,,B,][B,,B,] | [B,,B,]4 | %20
 [B,,B,][B,,B,] [B,,B,][B,,B,] | [B,,B,] [B,,B,]3 | [E,B,][E,B,] [E,B,][E,B,] | [E,E]4 | %24
 [E,B,][E,B,] [E,B,][E,E] | [A,E] [A,E]3 | [B,F][B,F] [B,E][K:bass][B,E] | [B,D]4 | %28
 [E,E][E,E] [E,E]E | [A,E][A,E] [A,C][A,C] | B,2 [B,,A,]2 | [E,G,]4 |] %32

